dest/img/img-trust-7.svg

<svg fill="none" height="20" viewBox="0 0 178 20" width="178" xmlns="http://www.w3.org/2000/svg"><path d="m29.5698.00000001h-5.4832l-7.9755 19.99999999h5.5929l1.4007-3.4146h7.2627l1.3209 3.4146h5.6228zm-4.9847 12.68289999 2.1783-6.39997h.0549l2.1534 6.39997zm-15.78102-12.68289999h-8.004092v19.99999999h5.438232v-6.8293h2.74878c4.5632 0 7.1241-1.9512 7.1241-6.63899.0049-4.5561-2.9811-6.53170999-7.30702-6.53170999zm-1.89844 9.26828999h-.66742v-4.87808l.66742.00003c2.03193 0 3.76226-.03902 3.76226 2.46342.005 2.41463-1.86382 2.41463-3.75731 2.41463zm105.37536 2.92681 5.481.0098v-4.40002h-5.481v-3.41464h7.475v-4.39023999h-12.956v19.99999999h12.956v-4.878h-7.475zm-47.881-6.82925h4.9391l.0296 14.63415h5.4033v-14.63415h4.9391v-5.36584999h-15.3111zm32.0865 2.43903h-7.6397v-7.80487999h-5.6024v19.99999999h5.6024v-7.8049h7.6397v7.8049h5.6025v-19.99999999h-5.6025zm35.6355-2.43903c2.562 0 4.64 2.07478 4.64 4.63415 0 2.5594-2.078 4.6341-4.64 4.6341s-4.639-2.0747-4.639-4.6341c.003-2.55825 2.078-4.63146 4.639-4.63415zm0-5.36584999c-5.529 0-10.011 4.47714999-10.011 9.99999999 0 5.5228 4.482 10 10.011 10s10.011-4.4772 10.011-10c0-5.52285-4.482-9.99999999-10.011-9.99999999zm28.237 11.19999999-8.514-11.19999999h-5.001v19.99999999h5.335l-.019-11.21951 8.136 11.21951h5.393v-19.99999999h-5.315zm-105.9997 0-8.5138-11.19999999h-5.0011v19.99999999h5.3345l-.0194-11.21951 8.137 11.21951h5.3924v-19.99999999h-5.3151zm114.8627-7.07204c-.004-.55151.106-1.0979.325-1.60411.424-.98678 1.21-1.77326 2.196-2.197271 1.023-.435439 2.179-.435439 3.201 0 .986.424011 1.773 1.210491 2.196 2.197271.435 1.02329.435 2.17977 0 3.20307-.421.97624-1.196 1.7561-2.17 2.1818-1.023.43543-2.178.43543-3.201 0-.986-.42402-1.772-1.21049-2.196-2.19728-.225-.49794-.344-1.03709-.351-1.58348zm.732 0c-.002.45386.09.90328.268 1.32043.343.8144.991 1.46233 1.805 1.80527.844.35477 1.795.35477 2.639 0 .814-.34247 1.462-.99055 1.804-1.80527.355-.84454.355-1.79631 0-2.64085-.342-.81472-.99-1.4628-1.804-1.80527-.844-.355358-1.795-.355358-2.639 0-.814.34293-1.462.99086-1.805 1.80527-.178.41715-.27.86657-.268 1.32042zm1.805-2.38295h1.819c.45-.03741.898.09303 1.258.36621.278.26933.426.64514.407 1.03158.026.34191-.089.67953-.319.93358-.218.20914-.499.33827-.799.36622l1.221 1.99611h-.891l-1.176-1.92906h-.634v1.92906h-.866v-4.71949zm.866 2.06316h1.031c.123-.0086.245-.03644.36-.08252.105-.04169.196-.11128.263-.20116.133-.22603.133-.5064 0-.73243-.067-.09007-.158-.1597-.263-.20116-.115-.04597-.237-.07213-.36-.07736h-1.031z" fill="#576472"/></svg>

<svg width="178" height="20" viewBox="0 0 178 20" fill="none" xmlns="http://www.w3.org/2000/svg">
<path d="M29.5698 8.76539e-09H24.0866L16.1111 20H21.704L23.1047 16.5854H30.3674L31.6883 20H37.3111L29.5698 8.76539e-09ZM24.5851 12.6829L26.7634 6.28293H26.8183L28.9717 12.6829H24.5851ZM8.80408 8.76539e-09H0.799988V20H6.23822V13.1707H8.987C13.5502 13.1707 16.1111 11.2195 16.1111 6.53171C16.116 1.97561 13.13 8.76539e-09 8.80408 8.76539e-09ZM6.90564 9.26829H6.23822V4.39021L6.90564 4.39024C8.93757 4.39024 10.6679 4.35122 10.6679 6.85366C10.6729 9.26829 8.80408 9.26829 6.91059 9.26829H6.90564ZM112.281 12.1951L117.762 12.2049V7.80488H112.281V4.39024H119.756V8.76539e-09H106.8V20H119.756V15.122H112.281V12.1951ZM64.4 5.36585H69.3391L69.3687 20H74.772V5.36585H79.7111V8.76539e-09H64.4V5.36585ZM96.4865 7.80488H88.8468V8.76539e-09H83.2444V20H88.8468V12.1951H96.4865V20H102.089V8.76539e-09H96.4865V7.80488ZM132.122 5.36585C134.684 5.36585 136.762 7.44063 136.762 10C136.762 12.5594 134.684 14.6341 132.122 14.6341C129.56 14.6341 127.483 12.5594 127.483 10C127.486 7.44175 129.561 5.36854 132.122 5.36585ZM132.122 8.76539e-09C126.593 8.76539e-09 122.111 4.47715 122.111 10C122.111 15.5228 126.593 20 132.122 20C137.651 20 142.133 15.5228 142.133 10C142.133 4.47715 137.651 8.76539e-09 132.122 8.76539e-09ZM160.359 11.2L151.845 8.76539e-09H146.844V20H152.179L152.16 8.78049L160.296 20H165.689V8.76539e-09H160.374L160.359 11.2ZM54.3593 11.2L45.8455 8.76539e-09H40.8444V20H46.1789L46.1595 8.78049L54.2965 20H59.6889V8.76539e-09H54.3738L54.3593 11.2ZM169.222 4.12796C169.218 3.57645 169.328 3.03006 169.547 2.52385C169.971 1.53707 170.757 0.75059 171.743 0.326579C172.766 -0.10886 173.922 -0.10886 174.944 0.326579C175.93 0.75059 176.717 1.53707 177.14 2.52385C177.575 3.54714 177.575 4.70362 177.14 5.72692C176.719 6.70316 175.944 7.48302 174.97 7.90872C173.947 8.34415 172.792 8.34415 171.769 7.90872C170.783 7.4847 169.997 6.69823 169.573 5.71144C169.348 5.2135 169.229 4.67435 169.222 4.12796ZM169.954 4.12796C169.952 4.58182 170.044 5.03124 170.222 5.44839C170.565 6.26279 171.213 6.91072 172.027 7.25366C172.871 7.60843 173.822 7.60843 174.666 7.25366C175.48 6.91119 176.128 6.26311 176.47 5.44839C176.825 4.60385 176.825 3.65208 176.47 2.80754C176.128 1.99282 175.48 1.34474 174.666 1.00227C173.822 0.646912 172.871 0.646912 172.027 1.00227C171.213 1.3452 170.565 1.99313 170.222 2.80754C170.044 3.22469 169.952 3.67411 169.954 4.12796ZM171.759 1.74501H173.578C174.028 1.7076 174.476 1.83804 174.836 2.11122C175.114 2.38055 175.262 2.75636 175.243 3.1428C175.269 3.48471 175.154 3.82233 174.924 4.07638C174.706 4.28552 174.425 4.41465 174.125 4.4426L175.346 6.43871H174.455L173.279 4.50965H172.645V6.43871H171.779V1.71922L171.759 1.74501ZM172.625 3.80817H173.656C173.779 3.79957 173.901 3.77173 174.016 3.72565C174.121 3.68396 174.212 3.61437 174.279 3.52449C174.412 3.29846 174.412 3.01809 174.279 2.79206C174.212 2.70199 174.121 2.63236 174.016 2.5909C173.901 2.54493 173.779 2.51877 173.656 2.51354H172.625V3.80817Z" fill="#576472"/>
</svg>
